storage/app/icons/phosphoricons/duotone/avocado-duotone.svg

<svg xmlns="http://www.w3.org/2000/svg" fill="currentColor" viewBox="0 0 256 256"><path d="m203.45 133.33-29.82-84.28a48 48 0 0 0-90.9-1l-29.54 83.54a80 80 0 1 0 150.26 1.74M128 200a40 40 0 1 1 40-40 40 40 0 0 1-40 40" opacity=".2"/><path d="M128 112a48 48 0 1 0 48 48 48.05 48.05 0 0 0-48-48m0 80a32 32 0 1 1 32-32 32 32 0 0 1-32 32m83-61.34-29.8-84.19a56 56 0 0 0-106-1.14l-29.51 83.5A88 88 0 1 0 211 130.66M128 232a72.05 72.05 0 0 1-67.33-97.57 1.3 1.3 0 0 1 .07-.18l29.54-83.59a40 40 0 0 1 75.74.88l.06.18L195.9 136a72.05 72.05 0 0 1-67.9 96"/></svg>

<svg xmlns="http://www.w3.org/2000/svg" viewBox="0 0 256 256" fill="currentColor"><path d="M203.45,133.33,173.63,49.05a48,48,0,0,0-90.9-1L53.19,131.59a80,80,0,1,0,150.26,1.74ZM128,200a40,40,0,1,1,40-40A40,40,0,0,1,128,200Z" opacity="0.2"/><path d="M128,112a48,48,0,1,0,48,48A48.05,48.05,0,0,0,128,112Zm0,80a32,32,0,1,1,32-32A32,32,0,0,1,128,192Zm83-61.34L181.2,46.47a56,56,0,0,0-106-1.14h0l-29.51,83.5A88,88,0,1,0,211,130.66ZM128,232a72.05,72.05,0,0,1-67.33-97.57,1.34,1.34,0,0,1,.07-.18L90.28,50.66h0a40,40,0,0,1,75.74.88l.06.18L195.9,136A72.05,72.05,0,0,1,128,232Z"/></svg>
